docs/icons/moon.svg

<svg height="124" viewBox="-.5 -.5 112 124" width="112" xmlns="http://www.w3.org/2000/svg"><g fill="#fff" pointer-events="all"><path d="m54.06 11c-24.72 10.72-36.06 39.39-25.3 64.05 10.75 24.65 39.51 35.95 64.24 25.23-19.39-3.34-35.79-16.18-43.64-34.17-7.84-17.98-6.08-38.7 4.7-55.11z" transform="matrix(.90630779 -.42261826 .42261826 .90630779 -20.579796 29.170539)"/><path d="m45.5 31 8-2 2-8 2 8 8 2-8 2-2 8-2-8z"/><path d="m62 61 6-1.5 1.5-6 1.5 6 6 1.5-6 1.5-1.5 6-1.5-6z"/><path d="m77 41 8-2 2-8 2 8 8 2-8 2-2 8-2-8z"/></g></svg>

<?xml version="1.0" encoding="UTF-8"?>
<!DOCTYPE svg PUBLIC "-//W3C//DTD SVG 1.1//EN" "http://www.w3.org/Graphics/SVG/1.1/DTD/svg11.dtd">
<svg xmlns="http://www.w3.org/2000/svg" xmlns:xlink="http://www.w3.org/1999/xlink" version="1.1" width="112px" height="124px" viewBox="-0.5 -0.5 112 124"><defs/><g><path d="M 54.06 11 C 29.34 21.72 18 50.39 28.76 75.05 C 39.51 99.7 68.27 111 93 100.28 C 73.61 96.94 57.21 84.1 49.36 66.11 C 41.52 48.13 43.28 27.41 54.06 11 Z" fill="#fff" stroke="none" transform="rotate(-25,55.5,61)" pointer-events="all"/><path d="M 45.5 31 L 53.5 29 L 55.5 21 L 57.5 29 L 65.5 31 L 57.5 33 L 55.5 41 L 53.5 33 Z" fill="#fff" stroke="none" pointer-events="all"/><path d="M 62 61 L 68 59.5 L 69.5 53.5 L 71 59.5 L 77 61 L 71 62.5 L 69.5 68.5 L 68 62.5 Z" fill="#fff" stroke="none" pointer-events="all"/><path d="M 77 41 L 85 39 L 87 31 L 89 39 L 97 41 L 89 43 L 87 51 L 85 43 Z" fill="#fff" stroke="none" pointer-events="all"/></g></svg>
